!!!OTL: UFM BERGLI BIN I GESAESSE
!!!ARE: Europa, Mitteleuropa, Deutschland
!!!SCT: B0397
!!!YEM: Copyright 1995, estate of Helmut Schaffrath.
**kern
*ICvox
*Ivox
*M3/4
*k[]
*C:
{8E
8F
=1
8G
8e
4c
8E
8F
=2
8G
8e
4c}
{8G
8A
=3
8G
8e
4d
8B
8F
=4
2E}
{8E
8F
=5
8G
8e
4d
8B
8F
=6
8E
8c
4B}
{8F
8D
=7
8BB
8A
4G
8F
8D
=8
2C}
{12E
12G
12c
=9
4e
4d
12G
12B
12d
=10
4f
4e}
{12c
12e
12g
=11
4.a
8g
8d
8e
=12
2c}
==
!!!AGN: Liebes - Lied, Liebes - Lust, Erotik
!!!ONB: ESAC (Essen Associative Code) Database: BOEHME
!!!AMT: simple triple
!!!AIN: vox
!!!EED: Helmut Schaffrath
!!!EEV: 1.0
*-
